src/components/Icon/utils/svgsOptimized/eraser.svg

<?xml version="1.0" encoding="utf-8"?><svg width="24" height="24" xmlns="http://www.w3.org/2000/svg" viewBox="0 0 24 24"><path d="m18.56 9.03-2.58-2.59a1.49 1.49 0 0 0-2.12 0l-7.42 7.41a1.49 1.49 0 0 0 0 2.12l1.88 1.88c.09.09.22.15.35.15H18c.28 0 .5-.22.5-.5s-.22-.5-.5-.5h-5.29l5.86-5.85c.59-.59.59-1.54 0-2.12h-.01Zm-.71 1.41L14.5 13.8l-3.29-3.29 3.36-3.35c.2-.2.51-.2.71 0l2.59 2.59c.2.2.2.51 0 .71l-.02-.02Z"/></svg>

<svg width="24" height="24" viewBox="0 0 24 24"  xmlns="http://www.w3.org/2000/svg">
<path d="M18.56 9.03L15.98 6.44C15.39 5.85 14.44 5.85 13.86 6.44L6.44 13.85C5.85 14.44 5.85 15.39 6.44 15.97L8.32 17.85C8.41 17.94 8.54 18 8.67 18H18C18.28 18 18.5 17.78 18.5 17.5C18.5 17.22 18.28 17 18 17H12.71L18.57 11.15C19.16 10.56 19.16 9.61 18.57 9.03H18.56ZM17.85 10.44L14.5 13.8L11.21 10.51L14.57 7.16C14.77 6.96 15.08 6.96 15.28 7.16L17.87 9.75C18.07 9.95 18.07 10.26 17.87 10.46L17.85 10.44Z" />
</svg>
